X:911
T:Reel 911
M:4/4
K:Emin
L:1/8
EF|G>E (3EDE B>E (3EDE |F>E (3DED d>E (3FED |E>F (3GFE B>E (3EDE |FDDF A2GA|B>e (3EEE B>E (3EDE |F>D (3DDD FDAF|G>E (3EDE B>E (3EDE |FDDF E2|BA|GFGF G2dB|AFDF AFDF|G>E (3EEE e2dB|AFDF A2|GF|GFGA B2B^c|dB (3BAG F2AF|EFGA B2de|fdef dBA||GFGA B2BA|G>E (3DED BAGE|FDdA F2dA|F>D (3DDD 
